X: 1
T: a Glezele Yash [Bm]
C: V.Shainsky
M: 2/4
L: 1/8
K: Bm
|: "Bm"BB Bd | f2 "F#7"fe \
|  "Bm"f2 b2 | f4 \
|  "B7"fa gf | "Em"e4 \
|  "A"ag fe |1 "D"f2- "F#7"f2 :|2 "D"d2- "F#7"f2 ||
|: "Bm"b2 f2 | "G"d'c' b2 \
|  "A"ag fg | "D"a4 \
|  "B7"ab "Em"g/f/e | "F#7"zf "Bm"B2 \
|  "G"dd "F#7"cc | "Bm"B4 :|
